X: 10111
M: 2/4
L: 1/8
K: A
E |\
|: e |\
fa ea | d/c/B/A/ c2 | cB BA/B/ | cB Be |\
fa ea | d/c/B/A/ cB | AF FE/F/ | AF F :|
|: e |\
a>bc'c' | d'bc'2 | c'b ba/b/ | c'b ba/f/ |\
f>gaa | d'>b c'>b | a>f fe/f/ | af f :|
|: a/g/ |\
faef | d/c/B/A/ c2 | cB BA/B/ | cB Be |\
f{g}a ea | d/c/B/A/ c>B | AF FE/F | AF F :|


